X: 5490
T: Bunker Hill
R: reel
M: 4/4
K: Dmixolydian
cA|:GECE D3 G|(3EFG AB c2Bc|ABAG EFGB|ABcA d2 cA:|
|:Gc~c2 ec~c2|GccB cBAG|Ad ~d2 fd ~d2|Add^c d=cAG|
FGAB cAdB|cAdB c2 Bc|(3dcB cA BGFG|1 ABcA d2 cA:|2 ABcA daga||
|:fd ~d2 fdad|fddf a2 gf|ge ~e2 gebe|geeg b2 ag|
fdd^c d=cAB|cAdB c2 Bc|(3dcB cA BGFG|1 ABcA daga:|2 ABcA d2||

